assets/images/slanted-vertical.svg

<svg height="120" viewBox="0 0 10 120" width="10" xmlns="http://www.w3.org/2000/svg"><g fill="#d0bfff" fill-rule="evenodd"><path d="m-.73553789 18.1654108c-.23806242.2328899-.50864551.4354911-.78105059.6288303-.31774351.2253768-.82061545.6081349-1.1978962.2308541-.37728074-.3772807.88549997-1.3923093 1.34130391-1.9416559.67833459-.8175462 1.08872713-1.9544281 1.92775577-2.8022079.69927713-.7065707 1.4186055-1.6047427 2.12542722-2.3038387.35264355-.3489489.77407885-.649938 1.21232721-.8805461.28374707-.1492612.65213452-.11493.92631933.1473508.27566014.2645002.29410684.6162591.17405631.9225208-.11817787.3006944-.33046376.5846569-.55815578.8204771-.49840018.5143461-.87933052.8810898-1.38685877 1.3868588-.29637545.2953481-.71828124.7307421-1.01458902 1.026125-.08979446.0895141-.17953198.17908-.26917992.268728-.87684289.6034375-1.65768627 1.6732038-2.49945947 2.4965037zm9.37517584-1.6110737c-.7715285.7715285-1.53455926 1.5515547-2.31901909 2.3101519-.29868579.2898185-.63654011.5419566-.9754775.7855716-.34042539.245103-.84343595.2249487-1.16702586-.0086171-.3531751-.2549671-.37562383-.9544562.00905989-1.349485.57268571-.5876003 1.36878756-1.3577106 1.94346606-1.9434661 1.24753561-1.271582 2.27708887-2.355643 3.53193748-3.6206095.35713037-.3600861.78303217-.6662807 1.30473907-.6929022.2172853-.0111229.5093797.1091075.6448802.272136.1347642.1615482.2041217.4779139.1426323.6798006-.0922367.3035716-.2801226.60747-.5022396.8391933-.8713513.9082979-1.77263185 1.7874104-2.66320042 2.677979zm8.89124985-2.0181946c-1.6653164 1.6653164-.6553245 1.488364-2.5955662 3.4286057s-2.3362411.910577-2.6404393.7522029c-.2401791-.124115-.3478492-.6201534-.2642345-.8958908.2028458-.6676349.6564559-1.1626253 1.1366449-1.6243409 1.0239799-.9840775 2.0778865-1.9382281 3.1147977-2.9093742.6103181-.5711547.8290645-.3135105 1.6465253-.8044794.8174608-.490969 1.7196583-1.2247522 1.9978385-.8285078.1174101.167241-.5173271 1.0005895-.7896921 1.2906888-.9149513.974066-1.8794212 1.9015893-2.8246738 2.8468419zm-23.35364928 1.7505555c-.83216453.8321645-1.65805066 1.6713514-2.5012992 2.492432-.23731588.2314044-.51897284.4199557-.79174232.6114425-.22259759.1553547-.7386632.0499774-.9084608-.1659483-.2388245-.3035525-.1961699-.6351301-.0127809-.9249255.22327404-.3533263.48319623-.6908365.76785242-.9976607.79778387-.8605932 1.6136792-1.7053069 2.4284636-2.5503876.69833059-.7234543 1.40331411-1.4409997 2.10903403-2.1570647.3563889-.3600835.72651394-.725775 1.24396707-.8094742.22144822-.035976.48476228.044314.69760339.140347.22468431.1019242.37129244.7031167.24495381.8966982-.18186801.2786683-.35710843.5706602-.58665538.8068575-.34775166.357694-.82977529.6087399-1.18215188.9619498-.53806109.5393334-.94839555 1.1789427-1.4869853 1.7175325z" transform="matrix(0 1 1 0 -10.541 10.541)"/><path d="m-.73553789 47.1654108c-.23806242.2328899-.50864551.4354911-.78105059.6288303-.31774351.2253768-.82061545.6081349-1.1978962.2308541-.37728074-.3772807.88549997-1.3923093 1.34130391-1.9416559.67833459-.8175462 1.08872713-1.9544281 1.92775577-2.8022079.69927713-.7065707 1.4186055-1.6047427 2.12542722-2.3038387.35264355-.3489489.77407885-.649938 1.21232721-.8805461.28374707-.1492612.65213452-.11493.92631933.1473508.27566014.2645002.29410684.6162591.17405631.9225208-.11817787.3006944-.33046376.5846569-.55815578.8204771-.49840018.5143461-.87933052.8810898-1.38685877 1.3868588-.29637545.2953481-.71828124.7307421-1.01458902 1.026125-.08979446.0895141-.17953198.17908-.26917992.268728-.87684289.6034375-1.65768627 1.6732038-2.49945947 2.4965037zm9.37517584-1.6110737c-.7715285.7715285-1.53455926 1.5515547-2.31901909 2.3101519-.29868579.2898185-.63654011.5419566-.9754775.7855716-.34042539.245103-.84343595.2249487-1.16702586-.0086171-.3531751-.2549671-.37562383-.9544562.00905989-1.349485.57268571-.5876003 1.36878756-1.3577106 1.94346606-1.9434661 1.24753561-1.271582 2.27708887-2.355643 3.53193748-3.6206095.35713037-.3600861.78303217-.6662807 1.30473907-.6929022.2172853-.0111229.5093797.1091075.6448802.272136.1347642.1615482.2041217.4779139.1426323.6798006-.0922367.3035716-.2801226.60747-.5022396.8391933-.8713513.9082979-1.77263185 1.7874104-2.66320042 2.677979zm8.89124985-2.0181946c-1.6653164 1.6653164-.6553245 1.488364-2.5955662 3.4286057s-2.3362411.910577-2.6404393.7522029c-.2401791-.124115-.3478492-.6201534-.2642345-.8958908.2028458-.6676349.6564559-1.1626253 1.1366449-1.6243409 1.0239799-.9840775 2.0778865-1.9382281 3.1147977-2.9093742.6103181-.5711547.8290645-.3135105 1.6465253-.8044794.8174608-.490969 1.7196583-1.2247522 1.9978385-.8285078.1174101.167241-.5173271 1.0005895-.7896921 1.2906888-.9149513.974066-1.8794212 1.9015893-2.8246738 2.8468419zm-23.35364928 1.7505555c-.83216453.8321645-1.65805066 1.6713514-2.5012992 2.492432-.23731588.2314044-.51897284.4199557-.79174232.6114425-.22259759.1553547-.7386632.0499774-.9084608-.1659483-.2388245-.3035525-.1961699-.6351301-.0127809-.9249255.22327404-.3533263.48319623-.6908365.76785242-.9976607.79778387-.8605932 1.6136792-1.7053069 2.4284636-2.5503876.69833059-.7234543 1.40331411-1.4409997 2.10903403-2.1570647.3563889-.3600835.72651394-.725775 1.24396707-.8094742.22144822-.035976.48476228.044314.69760339.140347.22468431.1019242.37129244.7031167.24495381.8966982-.18186801.2786683-.35710843.5706602-.58665538.8068575-.34775166.357694-.82977529.6087399-1.18215188.9619498-.53806109.5393334-.94839555 1.1789427-1.4869853 1.7175325z" transform="matrix(0 1 1 0 -39.541 39.541)"/><path d="m-.73553789 78.1654108c-.23806242.2328899-.50864551.4354911-.78105059.6288303-.31774351.2253768-.82061545.6081349-1.1978962.2308541-.37728074-.3772807.88549997-1.3923093 1.34130391-1.9416559.67833459-.8175462 1.08872713-1.9544281 1.92775577-2.8022079.69927713-.7065707 1.4186055-1.6047427 2.12542722-2.3038387.35264355-.3489489.77407885-.649938 1.21232721-.8805461.28374707-.1492612.65213452-.11493.92631933.1473508.27566014.2645002.29410684.6162591.17405631.9225208-.11817787.3006944-.33046376.5846569-.55815578.8204771-.49840018.5143461-.87933052.8810898-1.38685877 1.3868588-.29637545.2953481-.71828124.7307421-1.01458902 1.026125-.08979446.0895141-.17953198.17908-.26917992.268728-.87684289.6034375-1.65768627 1.6732038-2.49945947 2.4965037zm9.37517584-1.6110737c-.7715285.7715285-1.53455926 1.5515547-2.31901909 2.3101519-.29868579.2898185-.63654011.5419566-.9754775.7855716-.34042539.245103-.84343595.2249487-1.16702586-.0086171-.3531751-.2549671-.37562383-.9544562.00905989-1.349485.57268571-.5876003 1.36878756-1.3577106 1.94346606-1.9434661 1.24753561-1.271582 2.27708887-2.355643 3.53193748-3.6206095.35713037-.3600861.78303217-.6662807 1.30473907-.6929022.2172853-.0111229.5093797.1091075.6448802.272136.1347642.1615482.2041217.4779139.1426323.6798006-.0922367.3035716-.2801226.60747-.5022396.8391933-.8713513.9082979-1.77263185 1.7874104-2.66320042 2.677979zm8.89124985-2.0181946c-1.6653164 1.6653164-.6553245 1.488364-2.5955662 3.4286057s-2.3362411.910577-2.6404393.7522029c-.2401791-.124115-.3478492-.6201534-.2642345-.8958908.2028458-.6676349.6564559-1.1626253 1.1366449-1.6243409 1.0239799-.9840775 2.0778865-1.9382281 3.1147977-2.9093742.6103181-.5711547.8290645-.3135105 1.6465253-.8044794.8174608-.490969 1.7196583-1.2247522 1.9978385-.8285078.1174101.167241-.5173271 1.0005895-.7896921 1.2906888-.9149513.974066-1.8794212 1.9015893-2.8246738 2.8468419zm-23.35364928 1.7505555c-.83216453.8321645-1.65805066 1.6713514-2.5012992 2.492432-.23731588.2314044-.51897284.4199557-.79174232.6114425-.22259759.1553547-.7386632.0499774-.9084608-.1659483-.2388245-.3035525-.1961699-.6351301-.0127809-.9249255.22327404-.3533263.48319623-.6908365.76785242-.9976607.79778387-.8605932 1.6136792-1.7053069 2.4284636-2.5503876.69833059-.7234543 1.40331411-1.4409997 2.10903403-2.1570647.3563889-.3600835.72651394-.725775 1.24396707-.8094742.22144822-.035976.48476228.044314.69760339.140347.22468431.1019242.37129244.7031167.24495381.8966982-.18186801.2786683-.35710843.5706602-.58665538.8068575-.34775166.357694-.82977529.6087399-1.18215188.9619498-.53806109.5393334-.94839555 1.1789427-1.4869853 1.7175325z" transform="matrix(0 1 1 0 -70.541 70.541)"/><path d="m-.73553789 107.165411c-.23806242.23289-.50864551.435491-.78105059.62883-.31774351.225377-.82061545.608135-1.1978962.230854-.37728074-.377281.88549997-1.392309 1.34130391-1.941656.67833459-.817546 1.08872713-1.954428 1.92775577-2.802208.69927713-.70657 1.4186055-1.604742 2.12542722-2.303838.35264355-.348949.77407885-.649938 1.21232721-.880546.28374707-.1492616.65213452-.1149304.92631933.14735.27566014.264501.29410684.616259.17405631.922521-.11817787.300695-.33046376.584657-.55815578.820477-.49840018.514346-.87933052.88109-1.38685877 1.386859-.29637545.295348-.71828124.730742-1.01458902 1.026125-.08979446.089514-.17953198.17908-.26917992.268728-.87684289.603438-1.65768627 1.673204-2.49945947 2.496504zm9.37517584-1.611074c-.7715285.771529-1.53455926 1.551555-2.31901909 2.310152-.29868579.289819-.63654011.541957-.9754775.785572-.34042539.245103-.84343595.224948-1.16702586-.008618-.3531751-.254967-.37562383-.954456.00905989-1.349485.57268571-.5876 1.36878756-1.35771 1.94346606-1.943466 1.24753561-1.271582 2.27708887-2.355643 3.53193748-3.620609.35713037-.360086.78303217-.666281 1.30473907-.692902.2172853-.011123.5093797.109107.6448802.272136.1347642.161548.2041217.477914.1426323.6798-.0922367.303572-.2801226.60747-.5022396.839194-.8713513.908297-1.77263185 1.78741-2.66320042 2.677979zm8.89124985-2.018194c-1.6653164 1.665316-.6553245 1.488364-2.5955662 3.428605-1.9402417 1.940242-2.3362411.910577-2.6404393.752203-.2401791-.124115-.3478492-.620153-.2642345-.895891.2028458-.667635.6564559-1.162625 1.1366449-1.624341 1.0239799-.984077 2.0778865-1.938228 3.1147977-2.909374.6103181-.571154.8290645-.31351 1.6465253-.804479s1.7196583-1.224752 1.9978385-.828508c.1174101.167241-.5173271 1.000589-.7896921 1.290689-.9149513.974066-1.8794212 1.901589-2.8246738 2.846842zm-23.35364928 1.750555c-.83216453.832164-1.65805066 1.671351-2.5012992 2.492432-.23731588.231404-.51897284.419956-.79174232.611443-.22259759.155354-.7386632.049977-.9084608-.165949-.2388245-.303552-.1961699-.63513-.0127809-.924925.22327404-.353327.48319623-.690837.76785242-.997661.79778387-.860593 1.6136792-1.705307 2.4284636-2.550388.69833059-.723454 1.40331411-1.440999 2.10903403-2.157064.3563889-.360084.72651394-.725775 1.24396707-.809475.22144822-.035975.48476228.044314.69760339.140348.22468431.101924.37129244.703116.24495381.896698-.18186801.278668-.35710843.57066-.58665538.806857-.34775166.357694-.82977529.60874-1.18215188.96195-.53806109.539333-.94839555 1.178943-1.4869853 1.717532z" transform="matrix(0 1 1 0 -99.541 99.541)"/></g></svg>

<svg xmlns="http://www.w3.org/2000/svg" width="10" height="120" viewBox="0 0 10 120">
  <g fill="none" fill-rule="evenodd">
    <rect width="10" height="120" fill="#212529"/>
    <path fill="#D0BFFF" d="M-0.735537893,18.1654108 C-0.973600311,18.3983007 -1.2441834,18.6009019 -1.51658848,18.7942411 C-1.83433199,19.0196179 -2.33720393,19.402376 -2.71448468,19.0250952 C-3.09176542,18.6478145 -1.82898471,17.6327859 -1.37318077,17.0834393 C-0.694846176,16.2658931 -0.284453636,15.1290112 0.554574997,14.2812314 C1.25385213,13.5746607 1.9731805,12.6764887 2.68000222,11.9773927 C3.03264577,11.6284438 3.45408107,11.3274547 3.89232943,11.0968466 C4.1760765,10.9475854 4.54446395,10.9819166 4.81864876,11.2441974 C5.0943089,11.5086976 5.1127556,11.8604565 4.99270507,12.1667182 C4.8745272,12.4674126 4.66224131,12.7513751 4.43454929,12.9871953 C3.93614911,13.5015414 3.55521877,13.8682851 3.04769052,14.3740541 C2.75131507,14.6694022 2.32940928,15.1047962 2.0331015,15.4001791 C1.94330704,15.4896932 1.85356952,15.5792591 1.76392158,15.6689071 C0.887078686,16.2723446 0.106235308,17.3421109 -0.735537893,18.1654108 Z M8.63963795,16.5543371 C7.86810945,17.3258656 7.10507869,18.1058918 6.32061886,18.864489 C6.02193307,19.1543075 5.68407875,19.4064456 5.34514136,19.6500606 C5.00471597,19.8951636 4.50170541,19.8750093 4.1781155,19.6414435 C3.8249404,19.3864764 3.80249167,18.6869873 4.18717539,18.2919585 C4.7598611,17.7043582 5.55596295,16.9342479 6.13064145,16.3484924 C7.37817706,15.0769104 8.40773032,13.9928494 9.66257893,12.7278829 C10.0197093,12.3677968 10.4456111,12.0616022 10.967318,12.0349807 C11.1846033,12.0238578 11.4766977,12.1440882 11.6121982,12.3071167 C11.7469624,12.4686649 11.8163199,12.7850306 11.7548305,12.9869173 C11.6625938,13.2904889 11.4747079,13.5943873 11.2525909,13.8261106 C10.3812396,14.7344085 9.47995905,15.613521 8.58939048,16.5040896 L8.63963795,16.5543371 Z M17.5308878,14.5361425 C15.8655714,16.2014589 16.8755633,16.0245065 14.9353216,17.9647482 C12.9950799,19.9049899 12.5990805,18.8753252 12.2948823,18.7169511 C12.0547032,18.5928361 11.9470331,18.0967977 12.0306478,17.8210603 C12.2334936,17.1534254 12.6871037,16.658435 13.1672927,16.1967194 C14.1912726,15.2126419 15.2451792,14.2584913 16.2820904,13.2873452 C16.8924085,12.7161905 17.1111549,12.9738347 17.9286157,12.4828658 C18.7460765,11.9918968 19.648274,11.2581136 19.9264542,11.654358 C20.0438643,11.821599 19.4091271,12.6549475 19.1367621,12.9450468 C18.2218108,13.9191128 17.2573409,14.8466361 16.3120883,15.7918887 L17.5308878,14.5361425 Z M-5.82276148,16.286698 C-6.65492601,17.1188625 -7.48081214,17.9580494 -8.32406068,18.77913 C-8.56137656,19.0105344 -8.84303352,19.1990857 -9.115803,19.3905725 C-9.33840059,19.5459272 -9.8544662,19.4405499 -10.0242638,19.2246242 C-10.2630883,18.9210717 -10.2204337,18.5894941 -10.0370447,18.2996987 C-9.81377066,17.9463724 -9.55384847,17.6088622 -9.26919228,17.302038 C-8.47140841,16.4414448 -7.65551308,15.5967311 -6.84072868,14.7516504 C-6.14239809,14.0281961 -5.43741457,13.3106507 -4.73169465,12.5945857 C-4.37530575,12.2345022 -4.00518071,11.8688107 -3.48772758,11.7851115 C-3.26627936,11.7491355 -3.0029653,11.8294255 -2.79012419,11.9254585 C-2.56543988,12.0273827 -2.41883175,12.6285752 -2.54517038,12.8221567 C-2.72703839,13.100825 -2.90227881,13.3928169 -3.13182576,13.6290142 C-3.47957742,13.9867082 -3.96160105,14.2377541 -4.31397764,14.590964 C-4.85203873,15.1302974 -5.26237319,15.7699067 -5.80096294,16.3084965 L-5.82276148,16.286698 Z" transform="matrix(0 1 1 0 -10.541 10.541)"/>
    <path fill="#D0BFFF" d="M-0.735537893,47.1654108 C-0.973600311,47.3983007 -1.2441834,47.6009019 -1.51658848,47.7942411 C-1.83433199,48.0196179 -2.33720393,48.402376 -2.71448468,48.0250952 C-3.09176542,47.6478145 -1.82898471,46.6327859 -1.37318077,46.0834393 C-0.694846176,45.2658931 -0.284453636,44.1290112 0.554574997,43.2812314 C1.25385213,42.5746607 1.9731805,41.6764887 2.68000222,40.9773927 C3.03264577,40.6284438 3.45408107,40.3274547 3.89232943,40.0968466 C4.1760765,39.9475854 4.54446395,39.9819166 4.81864876,40.2441974 C5.0943089,40.5086976 5.1127556,40.8604565 4.99270507,41.1667182 C4.8745272,41.4674126 4.66224131,41.7513751 4.43454929,41.9871953 C3.93614911,42.5015414 3.55521877,42.8682851 3.04769052,43.3740541 C2.75131507,43.6694022 2.32940928,44.1047962 2.0331015,44.4001791 C1.94330704,44.4896932 1.85356952,44.5792591 1.76392158,44.6689071 C0.887078686,45.2723446 0.106235308,46.3421109 -0.735537893,47.1654108 Z M8.63963795,45.5543371 C7.86810945,46.3258656 7.10507869,47.1058918 6.32061886,47.864489 C6.02193307,48.1543075 5.68407875,48.4064456 5.34514136,48.6500606 C5.00471597,48.8951636 4.50170541,48.8750093 4.1781155,48.6414435 C3.8249404,48.3864764 3.80249167,47.6869873 4.18717539,47.2919585 C4.7598611,46.7043582 5.55596295,45.9342479 6.13064145,45.3484924 C7.37817706,44.0769104 8.40773032,42.9928494 9.66257893,41.7278829 C10.0197093,41.3677968 10.4456111,41.0616022 10.967318,41.0349807 C11.1846033,41.0238578 11.4766977,41.1440882 11.6121982,41.3071167 C11.7469624,41.4686649 11.8163199,41.7850306 11.7548305,41.9869173 C11.6625938,42.2904889 11.4747079,42.5943873 11.2525909,42.8261106 C10.3812396,43.7344085 9.47995905,44.613521 8.58939048,45.5040896 L8.63963795,45.5543371 Z M17.5308878,43.5361425 C15.8655714,45.2014589 16.8755633,45.0245065 14.9353216,46.9647482 C12.9950799,48.9049899 12.5990805,47.8753252 12.2948823,47.7169511 C12.0547032,47.5928361 11.9470331,47.0967977 12.0306478,46.8210603 C12.2334936,46.1534254 12.6871037,45.658435 13.1672927,45.1967194 C14.1912726,44.2126419 15.2451792,43.2584913 16.2820904,42.2873452 C16.8924085,41.7161905 17.1111549,41.9738347 17.9286157,41.4828658 C18.7460765,40.9918968 19.648274,40.2581136 19.9264542,40.654358 C20.0438643,40.821599 19.4091271,41.6549475 19.1367621,41.9450468 C18.2218108,42.9191128 17.2573409,43.8466361 16.3120883,44.7918887 L17.5308878,43.5361425 Z M-5.82276148,45.286698 C-6.65492601,46.1188625 -7.48081214,46.9580494 -8.32406068,47.77913 C-8.56137656,48.0105344 -8.84303352,48.1990857 -9.115803,48.3905725 C-9.33840059,48.5459272 -9.8544662,48.4405499 -10.0242638,48.2246242 C-10.2630883,47.9210717 -10.2204337,47.5894941 -10.0370447,47.2996987 C-9.81377066,46.9463724 -9.55384847,46.6088622 -9.26919228,46.302038 C-8.47140841,45.4414448 -7.65551308,44.5967311 -6.84072868,43.7516504 C-6.14239809,43.0281961 -5.43741457,42.3106507 -4.73169465,41.5945857 C-4.37530575,41.2345022 -4.00518071,40.8688107 -3.48772758,40.7851115 C-3.26627936,40.7491355 -3.0029653,40.8294255 -2.79012419,40.9254585 C-2.56543988,41.0273827 -2.41883175,41.6285752 -2.54517038,41.8221567 C-2.72703839,42.100825 -2.90227881,42.3928169 -3.13182576,42.6290142 C-3.47957742,42.9867082 -3.96160105,43.2377541 -4.31397764,43.590964 C-4.85203873,44.1302974 -5.26237319,44.7699067 -5.80096294,45.3084965 L-5.82276148,45.286698 Z" transform="matrix(0 1 1 0 -39.541 39.541)"/>
    <path fill="#D0BFFF" d="M-0.735537893,78.1654108 C-0.973600311,78.3983007 -1.2441834,78.6009019 -1.51658848,78.7942411 C-1.83433199,79.0196179 -2.33720393,79.402376 -2.71448468,79.0250952 C-3.09176542,78.6478145 -1.82898471,77.6327859 -1.37318077,77.0834393 C-0.694846176,76.2658931 -0.284453636,75.1290112 0.554574997,74.2812314 C1.25385213,73.5746607 1.9731805,72.6764887 2.68000222,71.9773927 C3.03264577,71.6284438 3.45408107,71.3274547 3.89232943,71.0968466 C4.1760765,70.9475854 4.54446395,70.9819166 4.81864876,71.2441974 C5.0943089,71.5086976 5.1127556,71.8604565 4.99270507,72.1667182 C4.8745272,72.4674126 4.66224131,72.7513751 4.43454929,72.9871953 C3.93614911,73.5015414 3.55521877,73.8682851 3.04769052,74.3740541 C2.75131507,74.6694022 2.32940928,75.1047962 2.0331015,75.4001791 C1.94330704,75.4896932 1.85356952,75.5792591 1.76392158,75.6689071 C0.887078686,76.2723446 0.106235308,77.3421109 -0.735537893,78.1654108 Z M8.63963795,76.5543371 C7.86810945,77.3258656 7.10507869,78.1058918 6.32061886,78.864489 C6.02193307,79.1543075 5.68407875,79.4064456 5.34514136,79.6500606 C5.00471597,79.8951636 4.50170541,79.8750093 4.1781155,79.6414435 C3.8249404,79.3864764 3.80249167,78.6869873 4.18717539,78.2919585 C4.7598611,77.7043582 5.55596295,76.9342479 6.13064145,76.3484924 C7.37817706,75.0769104 8.40773032,73.9928494 9.66257893,72.7278829 C10.0197093,72.3677968 10.4456111,72.0616022 10.967318,72.0349807 C11.1846033,72.0238578 11.4766977,72.1440882 11.6121982,72.3071167 C11.7469624,72.4686649 11.8163199,72.7850306 11.7548305,72.9869173 C11.6625938,73.2904889 11.4747079,73.5943873 11.2525909,73.8261106 C10.3812396,74.7344085 9.47995905,75.613521 8.58939048,76.5040896 L8.63963795,76.5543371 Z M17.5308878,74.5361425 C15.8655714,76.2014589 16.8755633,76.0245065 14.9353216,77.9647482 C12.9950799,79.9049899 12.5990805,78.8753252 12.2948823,78.7169511 C12.0547032,78.5928361 11.9470331,78.0967977 12.0306478,77.8210603 C12.2334936,77.1534254 12.6871037,76.658435 13.1672927,76.1967194 C14.1912726,75.2126419 15.2451792,74.2584913 16.2820904,73.2873452 C16.8924085,72.7161905 17.1111549,72.9738347 17.9286157,72.4828658 C18.7460765,71.9918968 19.648274,71.2581136 19.9264542,71.654358 C20.0438643,71.821599 19.4091271,72.6549475 19.1367621,72.9450468 C18.2218108,73.9191128 17.2573409,74.8466361 16.3120883,75.7918887 L17.5308878,74.5361425 Z M-5.82276148,76.286698 C-6.65492601,77.1188625 -7.48081214,77.9580494 -8.32406068,78.77913 C-8.56137656,79.0105344 -8.84303352,79.1990857 -9.115803,79.3905725 C-9.33840059,79.5459272 -9.8544662,79.4405499 -10.0242638,79.2246242 C-10.2630883,78.9210717 -10.2204337,78.5894941 -10.0370447,78.2996987 C-9.81377066,77.9463724 -9.55384847,77.6088622 -9.26919228,77.302038 C-8.47140841,76.4414448 -7.65551308,75.5967311 -6.84072868,74.7516504 C-6.14239809,74.0281961 -5.43741457,73.3106507 -4.73169465,72.5945857 C-4.37530575,72.2345022 -4.00518071,71.8688107 -3.48772758,71.7851115 C-3.26627936,71.7491355 -3.0029653,71.8294255 -2.79012419,71.9254585 C-2.56543988,72.0273827 -2.41883175,72.6285752 -2.54517038,72.8221567 C-2.72703839,73.100825 -2.90227881,73.3928169 -3.13182576,73.6290142 C-3.47957742,73.9867082 -3.96160105,74.2377541 -4.31397764,74.590964 C-4.85203873,75.1302974 -5.26237319,75.7699067 -5.80096294,76.3084965 L-5.82276148,76.286698 Z" transform="matrix(0 1 1 0 -70.541 70.541)"/>
    <path fill="#D0BFFF" d="M-0.735537893,107.165411 C-0.973600311,107.398301 -1.2441834,107.600902 -1.51658848,107.794241 C-1.83433199,108.019618 -2.33720393,108.402376 -2.71448468,108.025095 C-3.09176542,107.647814 -1.82898471,106.632786 -1.37318077,106.083439 C-0.694846176,105.265893 -0.284453636,104.129011 0.554574997,103.281231 C1.25385213,102.574661 1.9731805,101.676489 2.68000222,100.977393 C3.03264577,100.628444 3.45408107,100.327455 3.89232943,100.096847 C4.1760765,99.9475854 4.54446395,99.9819166 4.81864876,100.244197 C5.0943089,100.508698 5.1127556,100.860456 4.99270507,101.166718 C4.8745272,101.467413 4.66224131,101.751375 4.43454929,101.987195 C3.93614911,102.501541 3.55521877,102.868285 3.04769052,103.374054 C2.75131507,103.669402 2.32940928,104.104796 2.0331015,104.400179 C1.94330704,104.489693 1.85356952,104.579259 1.76392158,104.668907 C0.887078686,105.272345 0.106235308,106.342111 -0.735537893,107.165411 Z M8.63963795,105.554337 C7.86810945,106.325866 7.10507869,107.105892 6.32061886,107.864489 C6.02193307,108.154308 5.68407875,108.406446 5.34514136,108.650061 C5.00471597,108.895164 4.50170541,108.875009 4.1781155,108.641443 C3.8249404,108.386476 3.80249167,107.686987 4.18717539,107.291958 C4.7598611,106.704358 5.55596295,105.934248 6.13064145,105.348492 C7.37817706,104.07691 8.40773032,102.992849 9.66257893,101.727883 C10.0197093,101.367797 10.4456111,101.061602 10.967318,101.034981 C11.1846033,101.023858 11.4766977,101.144088 11.6121982,101.307117 C11.7469624,101.468665 11.8163199,101.785031 11.7548305,101.986917 C11.6625938,102.290489 11.4747079,102.594387 11.2525909,102.826111 C10.3812396,103.734408 9.47995905,104.613521 8.58939048,105.50409 L8.63963795,105.554337 Z M17.5308878,103.536143 C15.8655714,105.201459 16.8755633,105.024507 14.9353216,106.964748 C12.9950799,108.90499 12.5990805,107.875325 12.2948823,107.716951 C12.0547032,107.592836 11.9470331,107.096798 12.0306478,106.82106 C12.2334936,106.153425 12.6871037,105.658435 13.1672927,105.196719 C14.1912726,104.212642 15.2451792,103.258491 16.2820904,102.287345 C16.8924085,101.716191 17.1111549,101.973835 17.9286157,101.482866 C18.7460765,100.991897 19.648274,100.258114 19.9264542,100.654358 C20.0438643,100.821599 19.4091271,101.654947 19.1367621,101.945047 C18.2218108,102.919113 17.2573409,103.846636 16.3120883,104.791889 L17.5308878,103.536143 Z M-5.82276148,105.286698 C-6.65492601,106.118862 -7.48081214,106.958049 -8.32406068,107.77913 C-8.56137656,108.010534 -8.84303352,108.199086 -9.115803,108.390573 C-9.33840059,108.545927 -9.8544662,108.44055 -10.0242638,108.224624 C-10.2630883,107.921072 -10.2204337,107.589494 -10.0370447,107.299699 C-9.81377066,106.946372 -9.55384847,106.608862 -9.26919228,106.302038 C-8.47140841,105.441445 -7.65551308,104.596731 -6.84072868,103.75165 C-6.14239809,103.028196 -5.43741457,102.310651 -4.73169465,101.594586 C-4.37530575,101.234502 -4.00518071,100.868811 -3.48772758,100.785111 C-3.26627936,100.749136 -3.0029653,100.829425 -2.79012419,100.925459 C-2.56543988,101.027383 -2.41883175,101.628575 -2.54517038,101.822157 C-2.72703839,102.100825 -2.90227881,102.392817 -3.13182576,102.629014 C-3.47957742,102.986708 -3.96160105,103.237754 -4.31397764,103.590964 C-4.85203873,104.130297 -5.26237319,104.769907 -5.80096294,105.308496 L-5.82276148,105.286698 Z" transform="matrix(0 1 1 0 -99.541 99.541)"/>
  </g>
</svg>
